packages/sources/icons/src/vitamix/lock-fill.svg

<svg width="16" height="16" viewBox="0 0 16 16" fill="none" xmlns="http://www.w3.org/2000/svg">
<path fill-rule="evenodd" clip-rule="evenodd" d="M12 6.00001H13.3333C13.7015 6.00001 14 6.29849 14 6.66668V14.6667C14 15.0349 13.7015 15.3333 13.3333 15.3333H2.66667C2.29848 15.3333 2 15.0349 2 14.6667V6.66668C2 6.29849 2.29848 6.00001 2.66667 6.00001H4V5.33334C4 3.1242 5.79086 1.33334 8 1.33334C10.2091 1.33334 12 3.1242 12 5.33334V6.00001ZM7.33335 11.1547V12.6667H8.66669V11.1547C9.18931 10.8529 9.44411 10.2378 9.28792 9.65487C9.13173 9.07196 8.6035 8.66663 8.00002 8.66663C7.39655 8.66663 6.86831 9.07196 6.71212 9.65487C6.55593 10.2378 6.81073 10.8529 7.33335 11.1547ZM10.6667 5.33334V6.00001H5.33333V5.33334C5.33333 3.86058 6.52724 2.66668 8 2.66668C9.47276 2.66668 10.6667 3.86058 10.6667 5.33334Z" fill="#001018"/>
</svg>

<svg width="16" height="16" fill="none" xmlns="http://www.w3.org/2000/svg"><path fill-rule="evenodd" clip-rule="evenodd" d="M12 6h1.333c.368 0 .667.298.667.667v8a.667.667 0 0 1-.667.666H2.667A.667.667 0 0 1 2 14.667v-8C2 6.298 2.298 6 2.667 6H4v-.667a4 4 0 1 1 8 0V6zm-4.667 5.155v1.512h1.334v-1.512a1.333 1.333 0 1 0-1.334 0zm3.334-5.822V6H5.333v-.667a2.667 2.667 0 0 1 5.334 0z" fill="#001018"/></svg>
